X: 1
T: Cese Bequin
R: shottish
S: handout at NEFFA 2016 from Mark Vidor p.8, arr. Emmanuel Pariselle
Z: 2016 John Chambers <jc:trillian.mit.edu>
M: 4/4
L: 1/8
K: Am
ee e2 |\
"Am"e2 zd cd ef | "Dm"d2 dB zB d2 | "Am"c2 zA "E7"Bd cB |\
[1,3 "Am"Bc2A :|2,4 "Am"A2 z2 :|
|: ee e2 |\
"F"a3 b ag fe | "Dm"d2 z2 ee e2 | "E7"e3 e dd cB |\
[1,3 "Am"c2 A2 :|2,4 "Am"A2 z2 :|
